X:1
T:3 Duetten, Op.11
T:Der Serjungfern Gesang
T:Frau Prof. NANNY MÜLLER geb. Zeiller hochachtungsvoll zugeeignet
T:3. Der Seejungfern Gesang
T:Johanna Kinkel
T:Heinrich Heine
T:3 Duetten, Op.11 
T:Creative Commons copyright waiver (CC0 1.0 Universal)
T:Creative Commons copyright waiver (CC0 1.0 Universal)
T:Creative Commons copyright waiver (CC0 1.0 Universal)
T:Creative Commons copyright waiver (CC0 1.0 Universal)
T:Creative Commons copyright waiver (CC0 1.0 Universal)
T:Creative Commons copyright waiver (CC0 1.0 Universal)
C:Johanna Kinkel (originally published under the name Johanna Mathieux)
Z:Heinrich Heine
Z:Creative Commons copyright waiver (CC0 1.0 Universal)
%%score [ 1 2 ]
L:1/8
Q:1/4=114
M:4/4
K:A
V:1 treble nm="Soprano"
V:2 treble nm="Alto"
V:1
"^Moderato" z2 | z8 | z8 | z8 | z4 z2 E2 | c3 A B3 G | (A3 B) A2 Ac | e3 e ed cd | c4 z2 z z | z8 | %10
w: ||||Der|Mond ist auf- ge-|gan- * gen und *|ü- ber- strahlt * die *|Well'n.||
 z8 | z8 | z8 |"^Page 13" z8 | z8 | z8 | z8 | z8 ||[K:C][M:12/8] z12 | z12 | z12 | z12 | z12 | %23
w: |||||||||||||
 z12 |"^Page 14" z12 | z12 | z6 z2 z"^SOPRANO" z2 E | c2 B A ^G A d3 c2 z | z12 | z12 | z12 | %31
w: |||Das|ist kein Rau- schen des Win- des,||||
 z3 z z z z3 z2 A ||[K:A][M:4/4]"^Page 15" c3 c c3 B | B2 A2 z4 | z8 | z8 | z8 | z8 | z8 | z8 | %40
w: und|mei- ne Schwe- stern|sind es,|||||||
 z8 | z8 | z8 | z8 | z4 z2 EA |"^Page 16" c2 G A cB F G | (A3 B) A2 z z | z8 | z8 | z8 | z8 | z8 | %52
w: ||||Ich *|hal- te mein Lieb- * chen um-|fan- * gen,||||||
 z8 | z8 | z8 | z8 |"^Page 17" z3 z z2 A2 | d3 d e3 e | f6 z2 | z8 | z8 | z8 | z8 | z8 | z8 | z8 |] %66
w: ||||und|un- sre Her- zen|schwell'n,||||||||
V:2
 z2 | z8 | z8 | z8 | z4 z2 E2 | A3 E G3 E | (C3 E) A2 A2 | B3 A G3 B | A4 z2 z z | z8 | z8 | z8 | %12
w: ||||Der|Mond ist auf- ge-|gan- * gen und|ü- ber- strahlt die|Well'n.||||
 z8 | z8 | z8 | z8 | z8 | z8 ||[K:C][M:12/8] z12 | z12 | z12 | z12 | z12 | z12 | z12 | z12 | z12 | %27
w: |||||||||||||||
 z12 | z12 | z12 | z12 | z12 ||[K:A][M:4/4] z8 | z8 | z8 | z8 | z8 | z8 | z8 | z8 | z8 | z8 | z8 | %43
w: ||||||||||||||||
 z8 | z4 z2 CE | A2 E E G2 F E | (C3 E) A2 z z | z8 | z8 | z8 | z8 | z8 | z8 | z8 | z8 | z8 | z8 | %57
w: |Ich *|hal- te mein Lieb- chen um-|fan- * gen,|||||||||||
 z8 | z8 | z8 | z8 | z8 | z8 | z8 | z8 | z8 |] %66
w: |||||||||

